X: 7872
T: Compliments To Sean MaGuire
R: jig
M: 6/8
K: Fdorian
A,|G,B,E GEE|BGE edc|BGE B,EG|AFFF2A,|
G,B,E FGA|Bcd eBG|c=AF DEF|GEEE2A,|
G,B,E GEE|BGE edc|BGE B,EG|AFFF2c|
BGE AGF|GFE CB,A,|G,B,E DEF|GEEE2c|
|:BEE GEE|DFFF2E|DFB =Ace|dBBB2e|
efe dgd|cgc Bcd|eBG FEF|1 GEEE2c:|2 GEEE2||

